icons/LockClosed_1.svg

<svg width="24" height="24" viewBox="0 0 24 24" fill="none" xmlns="http://www.w3.org/2000/svg">
<path fill-rule="evenodd" clip-rule="evenodd" d="M16.75,7v2.25h0.25c1.5188,0 2.75,1.2312 2.75,2.75v7c0,1.5188 -1.2312,2.75 -2.75,2.75h-10c-1.51878,0 -2.75,-1.2312 -2.75,-2.75v-7c0,-1.5188 1.23122,-2.75 2.75,-2.75h0.25v-2.25c0,-2.62335 2.12665,-4.75 4.75,-4.75c2.6234,0 4.75,2.12665 4.75,4.75zM15.25,9.25v-2.25c0,-1.79493 -1.4551,-3.25 -3.25,-3.25c-1.7949,0 -3.25,1.45507 -3.25,3.25v2.25zM7.25,10.75h-0.25c-0.69036,0 -1.25,0.5596 -1.25,1.25v7c0,0.6904 0.55964,1.25 1.25,1.25h10c0.6904,0 1.25,-0.5596 1.25,-1.25v-7c0,-0.6904 -0.5596,-1.25 -1.25,-1.25h-0.25h-0.75h-8z" fill="#002B51"/>
</svg>

<svg width="24" height="24" viewBox="0 0 24 24" fill="none" xmlns="http://www.w3.org/2000/svg">
<path fill-rule="evenodd" clip-rule="evenodd" d="M12 2.25C9.37665 2.25 7.25 4.37665 7.25 7V9.25H7C5.48122 9.25 4.25 10.4812 4.25 12V19C4.25 20.5188 5.48122 21.75 7 21.75H17C18.5188 21.75 19.75 20.5188 19.75 19V12C19.75 10.4812 18.5188 9.25 17 9.25H16.75V7C16.75 4.37665 14.6234 2.25 12 2.25ZM15.25 9.25V7C15.25 5.20507 13.7949 3.75 12 3.75C10.2051 3.75 8.75 5.20507 8.75 7V9.25H15.25ZM7.25 10.75H7C6.30964 10.75 5.75 11.3096 5.75 12V19C5.75 19.6904 6.30964 20.25 7 20.25H17C17.6904 20.25 18.25 19.6904 18.25 19V12C18.25 11.3096 17.6904 10.75 17 10.75H16.75H16H8H7.25Z" fill="#002B51"/>
</svg>
